X: 2
T: Seanamhac Tube Station (©John Carty)
M: 6/8
L: 1/8
R: jig
K:Gdor
"Gm"~G3 GFD |GAc ~d3 | "Gm"dcA "F"cAF | "Gm"GFD "F"CDF |
"Gm"~G3 GFD |GAc ~d3 | dcA "F"cAF |1 "Gm"~G3 "F"ABA :|2 "Gm"~G3 "F"GAc||
"Gm"~d3 dcA | "F"~c3 cAc | "Gm"dcA "F"cAF | "Gm"GFD "F"CDF |
"Gm"~d3 dcA | "F"~c3 fcf | "Gm"dcA "F"cAF | "G"~G3 "F"GAc |
"Gm"~d3 dcA |"F" ~c3 cAc | "Gm"dcA "F"cAF | "Gm"GFD "F"CDF |
"Gm"GFD GFD | GFD "F"dcA | "Gm"dcA "F"dcA |["cont""Gm"~G3 "F"ABA ||
["trans""Gm"Gz2z3||
%%textfont Times-Roman 7

#include "RightHeader.h"
%%text Set 99, continued
%%scale .8
